X: 20453
T: John Joe Harnett's
R: polka
M: 2/4
K: Gmajor
|:A/|B2 BA|AG EG/E/|DG- GB|A/B/A/G/ d2|
B2 BA|AG EE|D/E/G/B/ dB|AB/A/ G3/2:|
|:z/|Bd- dg|ed g2|Bd- dg|dB A2|
Bd- dg|ed gg|B/c/B/A/ GB|1 AB/A/ G3/2:|2 A2 d3/2||

